X: 150
T: Scotty Fitzgerald's Jig
T: Jig, A
C: Sandy MacIntyre
L: 1/16
M: 6/8
K: A
|: E2| A2c2B2 A4c2| e2a2g2 f2e2d2| c2B2A2 E2A2c2| B4B2 B4E2| A2c2B2 A4c2| e2a2g2 f2e2d2| c2B2A2 E2c2B2| A6 A4:| 
|: e2| e2c'2e2 a6| a2g2a2 e4d2| c2B2A2 a2e2c2| B4B2 B4e2| [1 e2c'2e2 a6| a2g2a2 e2c2A2| d2c2B2 b2g2e2| a6 a4:| 
[2 c2d2e2 A2B2c2| d2e2f2 B2b2a2| g2f2e2 d2c2B2| A4A2 A4|]
D: Kinnon and Betty Beaton, Saturday Night Lively, KB20M98
D: Natalie MacMaster, My Roots Are Showing
